flaticon/productivity-and-development/objective.svg

<svg xmlns="http://www.w3.org/2000/svg" width="32" height="32" viewBox="0 0 24 24">
    <path d="M 23.933594 3.542969 L 24 2.535156 L 21.59375 2.382812 L 21.4375 0 L 20.421875 0.0664062 L 20.59375 2.695312 L 19.855469 3.425781 L 19.742188 1.679688 L 18.722656 1.742188 L 18.894531 4.375 L 18.265625 5 C 16.324219 3.296875 13.773438 2.261719 10.984375 2.261719 C 4.929688 2.261719 0 7.136719 0 13.132812 C 0 19.125 4.929688 24 10.984375 24 C 17.042969 24 21.96875 19.125 21.96875 13.132812 C 21.96875 10.261719 20.839844 7.648438 18.996094 5.703125 L 19.648438 5.054688 L 22.238281 5.21875 L 22.304688 4.214844 L 20.609375 4.105469 L 21.34375 3.375 Z M 20.949219 13.132812 C 20.949219 18.570312 16.480469 22.992188 10.984375 22.992188 C 5.488281 22.992188 1.019531 18.570312 1.019531 13.132812 C 1.019531 7.695312 5.488281 3.269531 10.984375 3.269531 C 13.492188 3.269531 15.789062 4.195312 17.542969 5.714844 L 16.101562 7.140625 C 14.71875 5.980469 12.933594 5.28125 10.984375 5.28125 C 6.609375 5.28125 3.050781 8.804688 3.050781 13.132812 C 3.050781 17.460938 6.609375 20.980469 10.984375 20.980469 C 15.359375 20.980469 18.917969 17.460938 18.917969 13.132812 C 18.917969 11.09375 18.128906 9.234375 16.835938 7.839844 L 18.273438 6.414062 C 19.933594 8.175781 20.949219 10.539062 20.949219 13.132812 Z M 10.976562 13.636719 L 14.03125 10.613281 C 14.609375 11.296875 14.957031 12.171875 14.957031 13.132812 C 14.957031 15.296875 13.175781 17.0625 10.984375 17.0625 C 8.792969 17.0625 7.011719 15.296875 7.011719 13.132812 C 7.011719 10.964844 8.792969 9.199219 10.984375 9.199219 C 11.839844 9.199219 12.632812 9.472656 13.28125 9.929688 L 10.257812 12.921875 Z M 14.011719 9.207031 C 13.171875 8.570312 12.121094 8.191406 10.984375 8.191406 C 8.230469 8.191406 5.992188 10.40625 5.992188 13.132812 C 5.992188 15.855469 8.230469 18.070312 10.984375 18.070312 C 13.738281 18.070312 15.976562 15.855469 15.976562 13.132812 C 15.976562 11.894531 15.515625 10.765625 14.753906 9.898438 L 16.113281 8.550781 C 17.222656 9.765625 17.898438 11.371094 17.898438 13.132812 C 17.898438 16.902344 14.796875 19.972656 10.984375 19.972656 C 7.171875 19.972656 4.070312 16.902344 4.070312 13.132812 C 4.070312 9.359375 7.171875 6.292969 10.984375 6.292969 C 12.652344 6.292969 14.183594 6.878906 15.378906 7.855469 Z M 14.011719 9.207031"/>
</svg>

<svg xmlns="http://www.w3.org/2000/svg" width="32" height="32" viewBox="0 0 24 24">
    <path d="M23.934 3.543L24 2.535l-2.406-.152L21.437 0l-1.015.066.172 2.63-.739.73-.113-1.746-1.02.062.173 2.633-.63.625a11.01 11.01 0 0 0-7.28-2.738C4.93 2.262 0 7.137 0 13.132 0 19.126 4.93 24 10.984 24c6.059 0 10.985-4.875 10.985-10.867 0-2.871-1.13-5.485-2.973-7.43l.652-.648 2.59.164.067-1.004-1.696-.11.735-.73zm-2.985 9.59c0 5.437-4.469 9.86-9.965 9.86-5.496 0-9.964-4.423-9.964-9.86 0-5.438 4.468-9.863 9.964-9.863 2.508 0 4.805.925 6.559 2.445L16.102 7.14a7.935 7.935 0 0 0-5.118-1.86c-4.375 0-7.933 3.524-7.933 7.852s3.558 7.847 7.933 7.847 7.934-3.52 7.934-7.847a7.76 7.76 0 0 0-2.082-5.293l1.437-1.426a9.767 9.767 0 0 1 2.676 6.719zm-9.972.504l3.054-3.024c.578.684.926 1.559.926 2.52 0 2.164-1.781 3.93-3.973 3.93-2.191 0-3.972-1.766-3.972-3.93 0-2.168 1.781-3.934 3.972-3.934.856 0 1.649.274 2.297.73l-3.023 2.993zm3.035-4.43a4.998 4.998 0 0 0-3.028-1.016c-2.754 0-4.992 2.215-4.992 4.942 0 2.722 2.238 4.937 4.992 4.937s4.993-2.215 4.993-4.937a4.88 4.88 0 0 0-1.223-3.235l1.36-1.347a6.77 6.77 0 0 1 1.784 4.582c0 3.77-3.101 6.84-6.914 6.84-3.812 0-6.914-3.07-6.914-6.84 0-3.774 3.102-6.84 6.914-6.84 1.668 0 3.2.586 4.395 1.562zm0 0"/>
</svg>
